javascript.info/6-data-storage/01-cookie/cookie-third-party.svg

<?xml version="1.0" encoding="UTF-8"?>
<svg width="668px" height="192px" viewBox="0 0 668 192" version="1.1" xmlns="http://www.w3.org/2000/svg" xmlns:xlink="http://www.w3.org/1999/xlink">
    <!-- Generator: sketchtool 55.2 (78181) - https://sketchapp.com -->
    <title>cookie-third-party.svg</title>
    <desc>Created with sketchtool.</desc>
    <g id="data-storage" stroke="none" stroke-width="1" fill="none" fill-rule="evenodd">
        <g id="cookie-third-party.svg">
            <rect id="Rectangle-1" stroke="#E8C48E" stroke-width="2" fill="#FFF9EB" x="38" y="48" width="282" height="99"></rect>
            <text id="&lt;img-src=&quot;https://ad" font-family="OpenSans-Regular, Open Sans" font-size="14" font-weight="normal" fill="#8A704D">
                <tspan x="42" y="70">&lt;img src="https://ads.com/banner.png"&gt;</tspan>
            </text>
            <text id="site.com" font-family="OpenSans-Bold, Open Sans" font-size="14" font-weight="bold" fill="#8A704D">
                <tspan x="149" y="36">site.com</tspan>
            </text>
            <rect id="Rectangle-1-Copy" stroke="#E8C48E" stroke-width="2" fill="#FFF9EB" x="505" y="48" width="140" height="99"></rect>
            <text id="ads.com" font-family="OpenSans-Bold, Open Sans" font-size="14" font-weight="bold" fill="#8A704D">
                <tspan x="543" y="36">ads.com</tspan>
            </text>
            <path id="Line" d="M485.492587,88.6098407 L321.374704,66.3565684 L321.643432,64.3747042 L485.761314,86.6279765 L486.567496,80.682384 L499.5,89.5 L484.686405,94.5554332 L485.492587,88.6098407 Z" fill="#EE6B47" fill-rule="nonzero"></path>
            <path id="Line-Copy" d="M336.262135,126.742529 L500.365913,105.881879 L500.618121,107.865913 L336.514342,128.726563 L337.270966,134.678665 L322.5,129.5 L335.505512,120.790427 L336.262135,126.742529 Z" fill="#EE6B47" fill-rule="nonzero"></path>
            <text id="GET-/banner.png" transform="translate(416.568389, 65.381858) rotate(7.000000) translate(-416.568389, -65.381858) " font-family="OpenSans-Regular, Open Sans" font-size="14" font-weight="normal" fill="#8A704D">
                <tspan x="361.068389" y="70.8818576">GET /banner.png</tspan>
            </text>
            <text id="Set-Cookie:-id=123" transform="translate(413.468881, 128.991204) rotate(-7.000000) translate(-413.468881, -128.991204) " font-family="OpenSans-Regular, Open Sans" font-size="14" font-weight="normal" fill="#8A704D">
                <tspan x="352.968881" y="134.491204">Set-Cookie: id=123</tspan>
            </text>
        </g>
    </g>
</svg>

<svg xmlns="http://www.w3.org/2000/svg" width="668" height="192" viewBox="0 0 668 192"><defs><style>@import url(https://fonts.googleapis.com/css?family=Open+Sans:bold,italic,bolditalic%7CPT+Mono);@font-face{font-family:&apos;PT Mono&apos;;font-weight:700;font-style:normal;src:local(&apos;PT MonoBold&apos;),url(/pack/modules/styles/blocks/font/PTMonoBold.woff2) format(&apos;woff2&apos;),url(/pack/modules/styles/blocks/font/PTMonoBold.woff) format(&apos;woff&apos;),url(/pack/modules/styles/blocks/font/PTMonoBold.ttf) format(&apos;truetype&apos;)}</style></defs><g id="data-storage" fill="none" fill-rule="evenodd" stroke="none" stroke-width="1"><g id="cookie-third-party.svg"><path id="Rectangle-1" fill="#FFF9EB" stroke="#E8C48E" stroke-width="2" d="M38 48h282v99H38z"/><text id="&lt;img-src=&quot;https://ad" fill="#8A704D" font-family="OpenSans-Regular, Open Sans" font-size="14" font-weight="normal"><tspan x="42" y="70">&lt;img src=&quot;https://ads.com/banner.png&quot;&gt;</tspan></text><text id="site.com" fill="#8A704D" font-family="OpenSans-Bold, Open Sans" font-size="14" font-weight="bold"><tspan x="149" y="36">site.com</tspan></text><path id="Rectangle-1-Copy" fill="#FFF9EB" stroke="#E8C48E" stroke-width="2" d="M505 48h140v99H505z"/><text id="ads.com" fill="#8A704D" font-family="OpenSans-Bold, Open Sans" font-size="14" font-weight="bold"><tspan x="543" y="36">ads.com</tspan></text><path id="Line" fill="#EE6B47" fill-rule="nonzero" d="M485.493 88.61L321.375 66.357l.268-1.982 164.118 22.253.806-5.946L499.5 89.5l-14.814 5.055.807-5.945z"/><path id="Line-Copy" fill="#EE6B47" fill-rule="nonzero" d="M336.262 126.743l164.104-20.861.252 1.984-164.104 20.86.757 5.953L322.5 129.5l13.006-8.71.756 5.953z"/><text id="GET-/banner.png" fill="#8A704D" font-family="OpenSans-Regular, Open Sans" font-size="14" font-weight="normal" transform="rotate(7 416.568 65.382)"><tspan x="361.068" y="70.882">GET /banner.png</tspan></text><text id="Set-Cookie:-id=123" fill="#8A704D" font-family="OpenSans-Regular, Open Sans" font-size="14" font-weight="normal" transform="rotate(-7 413.469 128.991)"><tspan x="352.969" y="134.491">Set-Cookie: id=123</tspan></text></g></g></svg>
